dest/img/img-trust-21.svg

<svg fill="none" height="38" viewBox="0 0 77 38" width="77" xmlns="http://www.w3.org/2000/svg" xmlns:xlink="http://www.w3.org/1999/xlink"><clipPath id="a"><path d="m0 0h76.9744v38h-76.9744z"/></clipPath><g clip-path="url(#a)"><path d="m54.9789 11.3903h-.6892-.4853-.0583c-1.621 0-3.5381.0872-5.7852 0h-.3591c-.4854 0-1.5143-.0919-1.5288-.0919l-.7183-.063c-.9707-.0823-1.9705-.2081-3.0334-.3872l-.7862-.1356-.4271-.0629c-.2718-.0533-1.4172-.305-1.6744-.3679-.2573-.0629-.4466-.1065-.6747-.1646-.4076-.1017-.8202-.21783-1.2424-.33885l-.5824-.17427c-.3932-.11133-.7911-.24203-1.1988-.37758l-.728-.24688c-.3543-.12101-.7086-.25171-1.0726-.38726l8.0032-5.80891z" fill="#949ca5"/><g fill="#576472"><path d="m22.8642 36.0249c-1.2942 0-2.2358-.3872-2.8247-1.1617-.5888-.7746-.8897-1.996-.9027-3.6645v-2.4204c0-1.7039.3009-2.9383.9027-3.7032.6019-.7648 1.5628-1.1472 2.8829-1.1472.8323-.0462 1.6566.1835 2.3442.6535.2666.1781.4896.4137.6526.6893.163.2757.2618.5844.289.9033.0055.0269.02.0512.0412.0688.0211.0176.0477.0275.0753.028h2.0189c.0322 0 .0631-.0127.0858-.0354.0228-.0227.0356-.0535.0356-.0856-.0082-.9673-.3887-1.8945-1.0629-2.5898-.9513-1.065-2.4849-1.5975-4.601-1.5975-1.9608 0-3.4459.5712-4.4554 1.7137-1.0095 1.1424-1.5126 2.8463-1.5094 5.1118v2.8754c0 2.0977.5048 3.6774 1.5143 4.7391 1.0095 1.0618 2.4962 1.5942 4.4602 1.5975 2.3685 0 4.0008-.668 4.8971-2.0041.2676-.379.4785-.7948.626-1.2344.1145-.4444.1716-.9015.1699-1.3603 0-.0312-.0121-.0613-.0338-.0839-.0217-.0225-.0513-.0358-.0827-.0371h-2.0578c-.0275.0006-.0541.0105-.0753.0281-.0211.0176-.0357.0418-.0412.0687-.3154 1.6169-1.4026 2.6479-3.3488 2.6479z"/><path d="m63.0403 24.0295c.0309 0 .0606-.0122.0824-.034s.0341-.0514.0341-.0822v-1.8346c.0007-.0155-.0018-.0309-.0075-.0453-.0056-.0144-.0141-.0275-.0251-.0384-.0109-.0109-.0241-.0195-.0385-.0251s-.0299-.0081-.0454-.0074h-3.3973v-3.7516c0-.0308-.0123-.0604-.0341-.0821-.0219-.0218-.0515-.0341-.0824-.0341l-2.0675.6293c-.0309 0-.0606.0123-.0824.0341-.0219.0217-.0341.0513-.0341.0821v3.1223h-2.2568c-.0309 0-.0606.0122-.0824.034-.0219.0218-.0341.0514-.0341.0822v1.8346c0 .0308.0122.0604.0341.0822.0218.0218.0515.034.0824.034h2.2568v9.6815c0 1.3361.3009 2.3139.9027 2.9335s1.5709.9359 2.9072.9488h1.8928c.0309 0 .0605-.0122.0823-.034.0219-.0218.0342-.0513.0342-.0822v-1.8007c0-.0308-.0123-.0604-.0342-.0822-.0218-.0218-.0514-.034-.0823-.034h-1.689c-.2389.0262-.4807-.0039-.7058-.088s-.4272-.2197-.59-.3961c-.307-.511-.4446-1.1056-.3932-1.6991v-9.3475z"/><path d="m42.3262 26.1401c-.0105-.1986-.0447-.3952-.102-.5857-.2015-.6885-.5435-1.3279-1.0046-1.8782-1.0095-1.1425-2.4946-1.7137-4.4554-1.7137-2.1161 0-3.6513.5325-4.6058 1.5975-.6458.7006-.9938 1.6238-.9707 2.5753 0 .0321.0128.0628.0355.0855.0228.0227.0536.0355.0858.0355h2.019c.0283-.0008.0554-.0114.0766-.0299.0213-.0186.0354-.044.0399-.0718.0134-.3145.0992-.6217.2507-.8978.1515-.2762.3646-.5139.6229-.6948.6899-.469 1.5154-.6986 2.349-.6535 1.3202 0 2.2811.3824 2.8829 1.1473.2772.3638.4455.7985.4854 1.2537v.4841 1.7136c-.6018-.0774-1.2037-.1355-1.8055-.1742-.6018-.0388-1.0968-.0581-1.4851-.0581-2.1193 0-3.674.3969-4.6641 1.1908s-1.4851 2.0541-1.4851 3.7806c0 1.6136.4708 2.7899 1.4123 3.529.8299.6389 2.5723.9681 4.3292 1.0649.4633.0202.9274.004 1.3881-.0484 1.4806-.128 2.9397-.4386 4.3437-.9246.075-.0222.1411-.0673.1889-.129.0479-.0616.0752-.1367.0781-.2147v-9.7686c.0145-.2227.0048-.4308-.0097-.6148zm-8.0518 9.3572c-.2516-.0837-.4816-.2216-.6737-.404s-.3415-.4048-.4377-.6513c-.1382-.3865-.204-.7951-.1941-1.2053 0-1.0876.2863-1.8637.859-2.3284.5727-.4648 1.6081-.6971 3.1062-.6971.3251 0 2.2616.1646 2.9848.2469.036.0036.0694.0205.0937.0473.0242.0269.0375.0618.0373.0979v4.5503c0 .0317-.0098.0626-.028.0886-.0183.026-.044.0457-.0739.0566-1.8181.6853-3.8118.755-5.6736.1985z"/><path d="m76.7462 26.1402c-.0151-.1925-.0526-.3826-.1116-.5664-.2016-.6885-.5436-1.3279-1.0047-1.8782-1.0095-1.1425-2.4946-1.7137-4.4553-1.7137-2.1226 0-3.6579.5325-4.6059 1.5975-.6457.7006-.9937 1.6239-.9707 2.5753 0 .0321.0128.0628.0356.0855.0227.0227.0536.0355.0858.0355h2.019c.0282-.0008.0553-.0113.0766-.0299.0212-.0186.0353-.0439.0399-.0718.0134-.3145.0991-.6217.2506-.8978.1515-.2762.3646-.5139.623-.6948.6896-.4696 1.5152-.6993 2.349-.6535 1.3201 0 2.2811.3824 2.8829 1.1473.2793.3626.4478.798.4853 1.2537 0 .1598.0243.3244.0243.4841v1.7136c-.6018-.0774-1.2036-.1355-1.8055-.1742-.6018-.0387-1.1017-.0581-1.4899-.0581-2.1161 0-3.6692.3969-4.6593 1.1908s-1.4835 2.0541-1.4803 3.7807c0 1.6135.4708 2.7898 1.4124 3.5289.8299.639 2.5723.9681 4.3292 1.0649.4632.0202.9273.004 1.388-.0484 1.4807-.128 2.9397-.4386 4.3438-.9246.075-.0222.141-.0673.1889-.129.0479-.0616.0752-.1367.078-.2146v-9.7881c-.0048-.2226-.0145-.4308-.0291-.6147zm-8.0517 9.3571c-.2516-.0836-.4816-.2216-.6737-.404s-.3416-.4047-.4377-.6512c-.1382-.3866-.204-.7951-.1942-1.2054 0-1.0875.2864-1.8637.8591-2.3284s1.6081-.6971 3.1061-.6971c.3252 0 2.2617.1646 2.9848.2469.0357.0046.0685.0218.0925.0484.024.0267.0377.061.0386.0968v4.5504c-.0013.0313-.0116.0617-.0297.0874-.0181.0258-.0431.0458-.0722.0578-1.8182.6852-3.8118.755-5.6736.1984z"/><path d="m53.0084 24.2038c.0288-.0012.056-.0135.0758-.0343.0199-.0207.031-.0483.031-.077v-.0872-1.9314c0-.3873-2.6645.2081-2.912.2856-.5596.126-1.0853.3712-1.541.7188s-.8307.7893-1.0992 1.2949v-1.8346c0-.0166-.0033-.0329-.0096-.0482-.0064-.0153-.0157-.0291-.0274-.0408s-.0256-.021-.0409-.0273-.0318-.0096-.0483-.0096h-2.0045c-.0334 0-.0655.0133-.0892.0369s-.0369.0556-.0369.089v14.9386c-.0001.0338.0131.0663.0366.0907s.0556.0387.0895.04h2.0676c.0339-.0013.066-.0156.0895-.04s.0367-.0569.0367-.0907v-8.3697c-.0219-.9834.177-1.9593.5824-2.8561.2547-.5676.6611-1.0545 1.1747-1.4071.5137-.3526 1.1147-.5575 1.7373-.5921.4491-.0563.9014-.0838 1.3541-.0823z"/><path d="m53.8287 12.3052c-30.9645 9.4782-53.8287 0-53.8287 0l17.0353-12.3052c6.4647 4.72943 12.0849 7.66293 16.8994 9.47338.364.13554.7183.26624 1.0726.38726l.728.24686c.4077.1356.8057.2663 1.1988.3776l.5824.1743c.4223.121.8348.2372 1.2425.3388.2281.0581.4513.1162.6746.1646.2232.0484 1.9753.426 2.1258.455l.7862.1356c1.0629.1791 2.0724.3049 3.0334.3872l.7183.063s1.0434.0726 1.5288.0919h.3591c2.2471.0823 4.1642 0 5.7852 0z"/></g></g></svg>

<svg width="77" height="38" viewBox="0 0 77 38" fill="none" xmlns="http://www.w3.org/2000/svg">
<g clip-path="url(#clip0)">
<path d="M54.9789 11.3903H54.2897H53.8044H53.7461C52.1251 11.3903 50.208 11.4775 47.9609 11.3903H47.6018C47.1164 11.3903 46.0875 11.2984 46.073 11.2984L45.3547 11.2354C44.384 11.1531 43.3842 11.0273 42.3213 10.8482L41.5351 10.7126L41.108 10.6497C40.8362 10.5964 39.6908 10.3447 39.4336 10.2818C39.1763 10.2189 38.987 10.1753 38.7589 10.1172C38.3513 10.0155 37.9387 9.89937 37.5165 9.77835L36.9341 9.60408C36.5409 9.49275 36.143 9.36205 35.7353 9.2265L35.0073 8.97962C34.653 8.85861 34.2987 8.72791 33.9347 8.59236L41.9379 2.78345L54.9789 11.3903Z" fill="#949CA5"/>
<path d="M22.8642 36.0249C21.57 36.0249 20.6284 35.6377 20.0395 34.8632C19.4507 34.0886 19.1498 32.8672 19.1368 31.1987V28.7783C19.1368 27.0744 19.4377 25.84 20.0395 25.0751C20.6414 24.3103 21.6023 23.9279 22.9224 23.9279C23.7547 23.8817 24.579 24.1114 25.2666 24.5814C25.5332 24.7595 25.7562 24.9951 25.9192 25.2707C26.0822 25.5464 26.181 25.8551 26.2082 26.174C26.2137 26.2009 26.2282 26.2252 26.2494 26.2428C26.2705 26.2604 26.2971 26.2703 26.3247 26.2708H28.3436C28.3758 26.2708 28.4067 26.2581 28.4294 26.2354C28.4522 26.2127 28.465 26.1819 28.465 26.1498C28.4568 25.1825 28.0763 24.2553 27.4021 23.56C26.4508 22.495 24.9172 21.9625 22.8011 21.9625C20.8403 21.9625 19.3552 22.5337 18.3457 23.6762C17.3362 24.8186 16.8331 26.5225 16.8363 28.788V31.6634C16.8363 33.7611 17.3411 35.3408 18.3506 36.4025C19.3601 37.4643 20.8468 37.9967 22.8108 38C25.1793 38 26.8116 37.332 27.7079 35.9959C27.9755 35.6169 28.1864 35.2011 28.3339 34.7615C28.4484 34.3171 28.5055 33.86 28.5038 33.4012C28.5038 33.37 28.4917 33.3399 28.47 33.3173C28.4483 33.2948 28.4187 33.2815 28.3873 33.2802H26.3295C26.302 33.2808 26.2754 33.2907 26.2542 33.3083C26.2331 33.3259 26.2185 33.3501 26.213 33.377C25.8976 34.9939 24.8104 36.0249 22.8642 36.0249Z" fill="#576472"/>
<path d="M63.0403 24.0295C63.0712 24.0295 63.1009 24.0173 63.1227 23.9955C63.1445 23.9737 63.1568 23.9441 63.1568 23.9133V22.0787C63.1575 22.0632 63.155 22.0478 63.1493 22.0334C63.1437 22.019 63.1352 22.0059 63.1242 21.995C63.1133 21.9841 63.1001 21.9755 63.0857 21.9699C63.0713 21.9643 63.0558 21.9618 63.0403 21.9625H59.643V18.2109C59.643 18.1801 59.6307 18.1505 59.6089 18.1288C59.587 18.107 59.5574 18.0947 59.5265 18.0947L57.459 18.724C57.4281 18.724 57.3984 18.7363 57.3766 18.7581C57.3547 18.7798 57.3425 18.8094 57.3425 18.8402V21.9625H55.0857C55.0548 21.9625 55.0251 21.9747 55.0033 21.9965C54.9814 22.0183 54.9692 22.0479 54.9692 22.0787V23.9133C54.9692 23.9441 54.9814 23.9737 55.0033 23.9955C55.0251 24.0173 55.0548 24.0295 55.0857 24.0295H57.3425V33.711C57.3425 35.0471 57.6434 36.0249 58.2452 36.6445C58.847 37.2641 59.8161 37.5804 61.1524 37.5933H63.0452C63.0761 37.5933 63.1057 37.5811 63.1275 37.5593C63.1494 37.5375 63.1617 37.508 63.1617 37.4771V35.6764C63.1617 35.6456 63.1494 35.616 63.1275 35.5942C63.1057 35.5724 63.0761 35.5602 63.0452 35.5602H61.3562C61.1173 35.5864 60.8755 35.5563 60.6504 35.4722C60.4253 35.3881 60.2232 35.2525 60.0604 35.0761C59.7534 34.5651 59.6158 33.9705 59.6672 33.377V24.0295H63.0403Z" fill="#576472"/>
<path d="M42.3262 26.1401C42.3157 25.9415 42.2815 25.7449 42.2242 25.5544C42.0227 24.8659 41.6807 24.2265 41.2196 23.6762C40.2101 22.5337 38.725 21.9625 36.7642 21.9625C34.6481 21.9625 33.1129 22.495 32.1584 23.56C31.5126 24.2606 31.1646 25.1838 31.1877 26.1353C31.1877 26.1674 31.2005 26.1981 31.2232 26.2208C31.246 26.2435 31.2768 26.2563 31.309 26.2563H33.328C33.3563 26.2555 33.3834 26.2449 33.4046 26.2264C33.4259 26.2078 33.44 26.1824 33.4445 26.1546C33.4579 25.8401 33.5437 25.5329 33.6952 25.2568C33.8467 24.9806 34.0598 24.7429 34.3181 24.562C35.008 24.093 35.8335 23.8634 36.6671 23.9085C37.9873 23.9085 38.9482 24.2909 39.55 25.0558C39.8272 25.4196 39.9955 25.8543 40.0354 26.3095C40.0354 26.4693 40.0354 26.6339 40.0354 26.7936V28.5072C39.4336 28.4298 38.8317 28.3717 38.2299 28.333C37.6281 28.2942 37.1331 28.2749 36.7448 28.2749C34.6255 28.2749 33.0708 28.6718 32.0807 29.4657C31.0906 30.2596 30.5956 31.5198 30.5956 33.2463C30.5956 34.8599 31.0664 36.0362 32.0079 36.7753C32.8378 37.4142 34.5802 37.7434 36.3371 37.8402C36.8004 37.8604 37.2645 37.8442 37.7252 37.7918C39.2058 37.6638 40.6649 37.3532 42.0689 36.8672C42.1439 36.845 42.21 36.7999 42.2578 36.7382C42.3057 36.6766 42.333 36.6015 42.3359 36.5235V26.7549C42.3504 26.5322 42.3407 26.3241 42.3262 26.1401ZM34.2744 35.4973C34.0228 35.4136 33.7928 35.2757 33.6007 35.0933C33.4086 34.9109 33.2592 34.6885 33.163 34.442C33.0248 34.0555 32.959 33.6469 32.9689 33.2367C32.9689 32.1491 33.2552 31.373 33.8279 30.9083C34.4006 30.4435 35.436 30.2112 36.9341 30.2112C37.2592 30.2112 39.1957 30.3758 39.9189 30.4581C39.9549 30.4617 39.9883 30.4786 40.0126 30.5054C40.0368 30.5323 40.0501 30.5672 40.0499 30.6033V35.1536C40.0499 35.1853 40.0401 35.2162 40.0219 35.2422C40.0036 35.2682 39.9779 35.2879 39.948 35.2988C38.1299 35.9841 36.1362 36.0538 34.2744 35.4973Z" fill="#576472"/>
<path d="M76.7462 26.1402C76.7311 25.9477 76.6936 25.7576 76.6346 25.5738C76.433 24.8853 76.091 24.2459 75.6299 23.6956C74.6204 22.5531 73.1353 21.9819 71.1746 21.9819C69.052 21.9819 67.5167 22.5144 66.5687 23.5794C65.923 24.28 65.575 25.2033 65.598 26.1547C65.598 26.1868 65.6108 26.2175 65.6336 26.2402C65.6563 26.2629 65.6872 26.2757 65.7194 26.2757H67.7384C67.7666 26.2749 67.7937 26.2644 67.815 26.2458C67.8362 26.2272 67.8503 26.2019 67.8549 26.174C67.8683 25.8595 67.954 25.5523 68.1055 25.2762C68.257 25 68.4701 24.7623 68.7285 24.5814C69.4181 24.1118 70.2437 23.8821 71.0775 23.9279C72.3976 23.9279 73.3586 24.3103 73.9604 25.0752C74.2397 25.4378 74.4082 25.8732 74.4457 26.3289C74.4457 26.4887 74.47 26.6533 74.47 26.813V28.5266C73.8682 28.4492 73.2664 28.3911 72.6645 28.3524C72.0627 28.3137 71.5628 28.2943 71.1746 28.2943C69.0585 28.2943 67.5054 28.6912 66.5153 29.4851C65.5252 30.279 65.0318 31.5392 65.035 33.2658C65.035 34.8793 65.5058 36.0556 66.4474 36.7947C67.2773 37.4337 69.0197 37.7628 70.7766 37.8596C71.2398 37.8798 71.7039 37.8636 72.1646 37.8112C73.6453 37.6832 75.1043 37.3726 76.5084 36.8866C76.5834 36.8644 76.6494 36.8193 76.6973 36.7576C76.7452 36.696 76.7725 36.6209 76.7753 36.543V26.7549C76.7705 26.5323 76.7608 26.3241 76.7462 26.1402ZM68.6945 35.4973C68.4429 35.4137 68.2129 35.2757 68.0208 35.0933C67.8287 34.9109 67.6792 34.6886 67.5831 34.4421C67.4449 34.0555 67.3791 33.647 67.3889 33.2367C67.3889 32.1492 67.6753 31.373 68.248 30.9083C68.8207 30.4436 69.8561 30.2112 71.3541 30.2112C71.6793 30.2112 73.6158 30.3758 74.3389 30.4581C74.3746 30.4627 74.4074 30.4799 74.4314 30.5065C74.4554 30.5332 74.4691 30.5675 74.47 30.6033V35.1537C74.4687 35.185 74.4584 35.2154 74.4403 35.2411C74.4222 35.2669 74.3972 35.2869 74.3681 35.2989C72.5499 35.9841 70.5563 36.0539 68.6945 35.4973Z" fill="#576472"/>
<path d="M53.0084 24.2038C53.0372 24.2026 53.0644 24.1903 53.0842 24.1695C53.1041 24.1488 53.1152 24.1212 53.1152 24.0925V24.0053V22.0739C53.1152 21.6866 50.4507 22.282 50.2032 22.3595C49.6436 22.4855 49.1179 22.7307 48.6622 23.0783C48.2065 23.4259 47.8315 23.8676 47.563 24.3732V22.5386C47.563 22.522 47.5597 22.5057 47.5534 22.4904C47.547 22.4751 47.5377 22.4613 47.526 22.4496C47.5143 22.4379 47.5004 22.4286 47.4851 22.4223C47.4698 22.416 47.4533 22.4127 47.4368 22.4127H45.4323C45.3989 22.4127 45.3668 22.426 45.3431 22.4496C45.3194 22.4732 45.3062 22.5052 45.3062 22.5386V37.4772C45.3061 37.511 45.3193 37.5435 45.3428 37.5679C45.3663 37.5923 45.3984 37.6066 45.4323 37.6079H47.4999C47.5338 37.6066 47.5659 37.5923 47.5894 37.5679C47.6129 37.5435 47.6261 37.511 47.6261 37.4772V29.1075C47.6042 28.1241 47.8031 27.1482 48.2085 26.2514C48.4632 25.6838 48.8696 25.1969 49.3832 24.8443C49.8969 24.4917 50.4979 24.2868 51.1205 24.2522C51.5696 24.1959 52.0219 24.1684 52.4746 24.1699L53.0084 24.2038Z" fill="#576472"/>
<path d="M53.8287 12.3052C22.8642 21.7834 0 12.3052 0 12.3052L17.0353 0C23.5 4.72943 29.1202 7.66293 33.9347 9.47338C34.2987 9.60892 34.653 9.73962 35.0073 9.86064L35.7353 10.1075C36.143 10.2431 36.541 10.3738 36.9341 10.4851L37.5165 10.6594C37.9388 10.7804 38.3513 10.8966 38.759 10.9982C38.9871 11.0563 39.2103 11.1144 39.4336 11.1628C39.6568 11.2112 41.4089 11.5888 41.5594 11.6178L42.3456 11.7534C43.4085 11.9325 44.418 12.0583 45.379 12.1406L46.0973 12.2036C46.0973 12.2036 47.1407 12.2762 47.6261 12.2955H47.9852C50.2323 12.3778 52.1494 12.2955 53.7704 12.2955L53.8287 12.3052Z" fill="#576472"/>
</g>
<defs>
<clipPath id="clip0">
<rect width="76.9744" height="38" fill="white"/>
</clipPath>
</defs>
</svg>
